X: 32348
T: Pining Maid, The
R: reel
M: 4/4
K: Bminor
|:FBBF B2Bc|dBeB dBAF|Beed e2ef|gefd edBA|
FBBF B2Be|gefd edBA|BeeB dBAG|AFdF E4:|
|:~g3e fedB|d2de dB~B2|~g3e fedA|Beed efga|
bg~g2 af~f2|gefd edBA|BeeB dBAG|AFdF E4:|

